data/playwrite-id.svg

<svg width="107.7" height="40.88" viewBox="0 0 107.7 40.88" xmlns="http://www.w3.org/2000/svg"><path transform="translate(0 27.496) scale(.014 -.014)" d="m251-14q-44 0-44 28v1385q0 14 11.5 21t33.5 7h286q145 0 243.5-35.5t148.5-114 50-207.5q0-109-38-190.5t-104-137.5-151-89-180-46q-59-7-112-11.5t-100-6.5v-575q0-14-11-21t-33-7zm44 682q28 2 61.5 4t71.5 6 77 8q108 16 194 60.5t136.5 124 50.5 197.5q0 101-39 162t-116.5 89-192.5 28h-243z"/><path transform="translate(14.658 27.496) scale(.014 -.014)" d="m-57-17q-19 0-28 11.5t-9 26 9 26 28 11.5q33 0 64.5 20t62 57.5 58.5 91 53 121 47 147 39.5 168.5 29.5 186.5 18.5 201 6.5 210.5q0 18 13 27.5t30.5 9.5 30.5-9.5 13-27.5q0-114-8-223.5t-22.5-212.5-35.5-198-47.5-179.5-57.5-156-65.5-128.5-72-97-77-61.5-80.5-21.5zm278 0q-26 0-45 7t-30.5 20-17 32.5-5.5 43.5v1172q0 98 38 148.5t112 50.5q44 0 75-22.5t46-66 15-107.5q0-19-13-28t-30.5-9-30.5 9-13 28q0 39-5.5 65t-18 38.5-30.5 12.5q-20 0-33-12.5t-19.5-39-6.5-67.5v-1162q0-13 4-21.5t11-12.5 16-4 16.5 3 14.5 8.5 14 10.5q8 7 18 2.5t17-12.5q8-10 8.5-20t-4.5-19q-11-15-28-26t-36-16.5-39-5.5z"/><path transform="translate(20.174 27.496) scale(.014 -.014)" d="m258-17q-57 0-101 27.5t-69 83.5-25 141q0 52 9.5 96t28.5 79 46 59 62 37 77 13q32 0 66-10.5t64-27.5v5q0 15 11 22t33 7 32.5-6.5 10.5-20.5v-392q0-13 4-21.5t11-12.5 16-4q10 0 16.5 2.5t13 7.5 15.5 12q7 6 16 3.5t18-10.5q9-10 10-21t-4-19q-11-16-28-27t-36.5-17-39.5-6q-23 0-40 5t-29 15.5-18.5 25.5-9.5 34q0 1-1 4.5t-1 7.5q-23-37-49.5-57t-54.5-27.5-54-7.5zm-107 256q0-55 13-94.5t39.5-60.5 66.5-21q29 0 55.5 10t49.5 33 41 60v242q-31 19-60 25.5t-61 6.5q-26 0-48-8t-40-24-30.5-40-19-56-6.5-73z"/><path transform="translate(28.882 27.496) scale(.014 -.014)" d="m480-88q16 17 32.5 33.5t32 31 30 26.5 26.5 20q13 11 25.5 6.5t20-16.5 6.5-26-14-24q-12-9-28-23.5t-34.5-32.5-37.5-37-36-36zm-142-869q-51 0-88 23.5t-56.5 69-19.5 112.5q0 60 11 128t35 139.5 60 142.5 86 137q17 20 33.5 40.5t35.5 39.5v202q-13-22-30.5-39.5t-38.5-29.5-45.5-18.5-51.5-6.5q-58 0-97 20.5t-58.5 61-19.5 101.5v323q0 13 10.5 19.5t31.5 6.5q22 0 33-6.5t11-19.5v-323q0-35 11-59t33.5-36 55.5-12q28 0 52 9t43.5 24.5 34.5 37.5 25 47v312q0 13 10.5 19.5t32.5 6.5q21 0 32-6.5t11-19.5v-1212q0-55-12-98.5t-35-74-57.5-46-78.5-15.5zm6 75q22 0 39 11.5t29 31.5 17.5 49.5 5.5 66.5v483q-9-8-17-17.5t-15-20.5q-33-48-59-106t-44-120-27.5-125-9.5-122q0-40 9.5-70t27.5-45.5 44-15.5z"/><path transform="translate(37.842 27.496) scale(.014 -.014)" d="m273-17q-36 0-64.5 11.5t-48.5 34.5-30.5 57-10.5 80v203q0 42-13 56.5t-36 14.5q-17 0-28.5-9t-18-26-8.5-40q-1-16-9-23.5t-26-7.5q-16 0-26 7t-9 33q2 43 17.5 74.5t43 49 64.5 17.5q35 0 60.5-10t42-31 24.5-52 8-73v-183q0-35 8.5-59t27-36 47.5-12q20 0 42 7.5t41.5 26.5 31.5 52.5 12 84.5v259q0 12 10.5 19t32.5 7q23 0 33-7t10-19v-278q0-46 4.5-75t15-45.5 27.5-23 41-6.5q20 0 39.5 6t37 19.5 31 35.5 21.5 52.5 8 71.5q0 38-5.5 75t-17 72.5-30.5 67.5q-11 18-6 31t19 20 29 7q14 0 21-6t14-18q15-23 29.5-59.5t24.5-82.5 10-98q0-42-10-82.5t-29-75-47.5-60.5-65.5-41-83-15q-33 0-62 11t-50.5 33.5-34.5 57.5q-17-33-42-55t-55-33.5-62-11.5z"/><path transform="translate(50.274 27.496) scale(.014 -.014)" d="m-55-17q-19 0-28.5 11.5t-10 26 8.5 26 28 11.5q31 0 57 24t47 71.5 37 117.5 26 162l60-9q-9-112-27.5-195t-46.5-137.5-65.5-81.5-85.5-27zm515 0q-26 0-45 7t-31 20.5-18 34-6 46.5q0 28 2.5 64t5 74 5 72.5 2.5 59.5q0 39-9.5 53.5t-35.5 14.5q-28 0-64-10t-70-19.5-55-9.5q-18 0-34.5 19.5t-27.5 48-11 55.5q0 18 6 32t17.5 22 29.5 8q33 0 44-23t11-54q0-7 0-14t-1-15q12 0 39 11t62.5 22 71.5 11q40 0 65-15t36.5-46.5 11.5-82.5q0-23-2.5-58.5t-5-75-5-74.5-2.5-58q0-26 7.5-35.5t22.5-9.5q10 0 18 3t15.5 8.5 14.5 10.5q8 6 18 2t17-12q8-10 8.5-20t-4.5-19q-11-15-27.5-26t-36-16.5-39.5-5.5z"/><path transform="translate(58.226 27.496) scale(.014 -.014)" d="m193-17q-52 0-75.5 27t-23.5 76v403q0 13 10.5 19.5t31.5 6.5q22 0 33-6.5t11-19.5v-393q0-20 9-29t22-9q11 0 18.5 3.5t14 8.5 14.5 11q6 5 16.5 1t16.5-12q8-9 9-19t-5-18q-11-16-27.5-27t-36-17-38.5-6zm-55 686q-28 0-42.5 15.5t-14.5 46.5q0 32 14.5 48t42.5 16q27 0 41-16t14-48q1-31-13.5-46.5t-41.5-15.5z"/><path transform="translate(62.426 27.496) scale(.014 -.014)" d="m243-17q-42 0-69.5 15.5t-41 44-13.5 68.5v309h-78q-15 0-21 9t-6 31q0 23 6 31.5t21 8.5h78v204q0 13 10.5 19.5t31.5 6.5q22 0 33-6.5t11-19.5v-204h126q15 0 21.5-8.5t6.5-31.5q0-22-6.5-31t-21.5-9h-126v-299q0-34 9.5-48.5t34.5-14.5q23 0 39.5 11t34.5 27q12 11 22.5 7.5t19.5-12.5q11-10 11.5-20.5t-5.5-19.5q-17-25-38-40t-44-21.5-46-6.5z"/><path transform="translate(67.858 27.496) scale(.014 -.014)" d="m300-17q-40 0-77.5 17t-69 48-55 73.5-36.5 93-13 106.5q0 34 8 64.5t23 55 36 42 47 27 56 9.5q57 0 92.5-23t51.5-60.5 16-80.5q0-34-12.5-70t-34.5-70.5-51-66.5q-43-48-98-85.5t-116.5-58.5-126.5-21q-14 0-21 11.5t-5.5 26 12.5 26 33 11.5q46 0 94.5 18t92.5 48 75 65q22 25 37.5 51.5t23.5 53.5 8 52q0 53-20 73.5t-54 20.5q-17 0-31.5-7.5t-25.5-23-17-37.5-6-51q0-57 16.5-104.5t43.5-81.5 57.5-53 57.5-19q19 0 37 7.5t37.5 22.5 39.5 37q14 16 27 15.5t27-11.5 16.5-23-6.5-26q-25-38-58.5-60.5t-67.5-32-63-9.5z"/><path transform="translate(78.274 27.496) scale(.014 -.014)" d="m323-19q-54 0-100.5 16t-84.5 46-67 74q-10 16-8 30.5t18 26.5q19 14 32.5 11.5t25.5-18.5q40-49 87-75t101-26q63 0 106 29t64.5 86.5 21.5 145.5v1013q-19-19-47.5-31t-60.5-12q-27 0-51.5 6t-46.5 13.5-43.5 13-41.5 5.5q-26 0-46-13.5t-32-39.5-12-62q0-15-9.5-25t-34.5-10q-21 0-30.5 9.5t-9.5 25.5q0 60 21 104.5t60 69.5 90 25q32 0 57.5-6t48.5-13.5 44.5-13.5 44.5-6q31 0 51 14.5t38 30.5q15 16 27.5 22t26.5 6q22 0 33-6.5t11-20.5v-1100q0-115-32.5-191.5t-95.5-115-156-38.5z"/><path transform="translate(89.502 27.496) scale(.014 -.014)" d="m251 0q-44 0-44 28v1371q0 14 11 21t33 7h273q153 0 272-43.5t202-127 126-202 43-267.5q0-148-31.5-271t-92-219-148.5-162.5-202.5-100.5-252.5-34zm44 85h144q120 0 219.5 30.5t175.5 89 128.5 144 80 195.5 27.5 243q0 129-37 232t-107 175-171.5 110-230.5 38h-229z"/></svg>

<?xml version="1.0" encoding="utf-8" ?>
<svg baseProfile="tiny" height="100%" version="1.2" width="100%" xmlns="http://www.w3.org/2000/svg" xmlns:ev="http://www.w3.org/2001/xml-events" xmlns:xlink="http://www.w3.org/1999/xlink"><defs /><g><path d="M251 -14Q207 -14 207 14V1399Q207 1413 218.5 1420.0Q230 1427 252 1427H538Q683 1427 781.5 1391.5Q880 1356 930.0 1277.5Q980 1199 980 1070Q980 961 942.0 879.5Q904 798 838.0 742.0Q772 686 687.0 653.0Q602 620 507 607Q448 600 395.0 595.5Q342 591 295 589V14Q295 0 284.0 -7.0Q273 -14 251 -14ZM295 668Q323 670 356.5 672.0Q390 674 428.0 678.0Q466 682 505 686Q613 702 699.0 746.5Q785 791 835.5 870.5Q886 950 886 1068Q886 1169 847.0 1230.0Q808 1291 730.5 1319.0Q653 1347 538 1347H295Z" transform="translate(0.0, 72) scale(0.072, -0.072)" /><path d="M-57 -17Q-76 -17 -85.0 -5.5Q-94 6 -94.0 20.5Q-94 35 -85.0 46.5Q-76 58 -57 58Q-24 58 7.5 78.0Q39 98 69.5 135.5Q100 173 128.0 226.5Q156 280 181.0 347.5Q206 415 228.0 494.5Q250 574 267.5 663.0Q285 752 297.0 849.5Q309 947 315.5 1050.5Q322 1154 322 1261Q322 1279 335.0 1288.5Q348 1298 365.5 1298.0Q383 1298 396.0 1288.5Q409 1279 409 1261Q409 1147 401.0 1037.5Q393 928 378.5 825.0Q364 722 343.0 627.0Q322 532 295.5 447.5Q269 363 238.0 291.5Q207 220 172.5 163.0Q138 106 100.5 66.0Q63 26 23.5 4.5Q-16 -17 -57 -17ZM221 -17Q195 -17 176.0 -10.0Q157 -3 145.5 10.0Q134 23 128.5 42.5Q123 62 123 86V1258Q123 1356 161.0 1406.5Q199 1457 273 1457Q317 1457 348.0 1434.5Q379 1412 394.0 1368.5Q409 1325 409 1261Q409 1242 396.0 1233.0Q383 1224 365.5 1224.0Q348 1224 335.0 1233.0Q322 1242 322 1261Q322 1300 316.5 1326.0Q311 1352 298.5 1364.5Q286 1377 268 1377Q248 1377 235.0 1364.5Q222 1352 215.5 1325.5Q209 1299 209 1258V96Q209 83 213.0 74.5Q217 66 224.0 62.0Q231 58 240 58Q249 58 256.5 61.0Q264 64 271.0 69.5Q278 75 285 80Q293 87 303.0 82.5Q313 78 320 70Q328 60 328.5 50.0Q329 40 324 31Q313 16 296.0 5.0Q279 -6 260.0 -11.5Q241 -17 221 -17Z" transform="translate(75.384, 72) scale(0.072, -0.072)" /><path d="M258 -17Q201 -17 157.0 10.5Q113 38 88.0 94.0Q63 150 63 235Q63 287 72.5 331.0Q82 375 101.0 410.0Q120 445 147.0 469.0Q174 493 209.0 506.0Q244 519 286 519Q318 519 352.0 508.5Q386 498 416 481V486Q416 501 427.0 508.0Q438 515 460 515Q482 515 492.5 508.5Q503 502 503 488V96Q503 83 507.0 74.5Q511 66 518.0 62.0Q525 58 534 58Q544 58 550.5 60.5Q557 63 563.5 68.0Q570 73 579 80Q586 86 595.0 83.5Q604 81 613 73Q622 63 623.0 52.0Q624 41 619 33Q608 17 591.0 6.0Q574 -5 554.5 -11.0Q535 -17 515 -17Q492 -17 475.0 -12.0Q458 -7 446.0 3.5Q434 14 427.5 29.0Q421 44 418 63Q418 64 417.0 67.5Q416 71 416 75Q393 38 366.5 18.0Q340 -2 312.0 -9.5Q284 -17 258 -17ZM151 239Q151 184 164.0 144.5Q177 105 203.5 84.0Q230 63 270 63Q299 63 325.5 73.0Q352 83 375.0 106.0Q398 129 416 166V408Q385 427 356.0 433.5Q327 440 295 440Q269 440 247.0 432.0Q225 424 207.0 408.0Q189 392 176.5 368.0Q164 344 157.5 312.0Q151 280 151 239Z" transform="translate(103.752, 72) scale(0.072, -0.072)" /><path d="M480 -88Q496 -71 512.5 -54.5Q529 -38 544.5 -23.5Q560 -9 574.5 3.0Q589 15 601 23Q614 34 626.5 29.5Q639 25 646.5 13.0Q654 1 653.0 -13.0Q652 -27 639 -37Q627 -46 611.0 -60.5Q595 -75 576.5 -93.0Q558 -111 539.0 -130.0Q520 -149 503 -166ZM338 -957Q287 -957 250.0 -933.5Q213 -910 193.5 -864.5Q174 -819 174 -752Q174 -692 185.0 -624.0Q196 -556 220.0 -484.5Q244 -413 280.0 -342.0Q316 -271 366 -205Q383 -185 399.5 -164.5Q416 -144 435 -125V77Q422 55 404.5 37.5Q387 20 366.0 8.0Q345 -4 320.5 -10.5Q296 -17 269 -17Q211 -17 172.0 3.5Q133 24 113.5 64.5Q94 105 94 166V489Q94 502 104.5 508.5Q115 515 136 515Q158 515 169.0 508.5Q180 502 180 489V166Q180 131 191.0 107.0Q202 83 224.5 71.0Q247 59 280 59Q308 59 332.0 68.0Q356 77 375.5 92.5Q395 108 410.0 130.0Q425 152 435 177V489Q435 502 445.5 508.5Q456 515 478 515Q499 515 510.0 508.5Q521 502 521 489V-723Q521 -778 509.0 -821.5Q497 -865 474.0 -895.5Q451 -926 416.5 -941.5Q382 -957 338 -957ZM344 -882Q366 -882 383.0 -870.5Q400 -859 412.0 -839.0Q424 -819 429.5 -789.5Q435 -760 435 -723V-240Q426 -248 418.0 -257.5Q410 -267 403 -278Q370 -326 344.0 -384.0Q318 -442 300.0 -504.0Q282 -566 272.5 -629.0Q263 -692 263 -751Q263 -791 272.5 -821.0Q282 -851 300.0 -866.5Q318 -882 344 -882Z" transform="translate(148.536, 72) scale(0.072, -0.072)" /><path d="M273 -17Q237 -17 208.5 -5.5Q180 6 160.0 29.0Q140 52 129.5 86.0Q119 120 119 166V369Q119 411 106.0 425.5Q93 440 70 440Q53 440 41.5 431.0Q30 422 23.5 405.0Q17 388 15 365Q14 349 6.0 341.5Q-2 334 -20 334Q-36 334 -46.0 341.0Q-56 348 -55 374Q-53 417 -37.5 448.5Q-22 480 5.5 497.5Q33 515 70 515Q105 515 130.5 505.0Q156 495 172.5 474.0Q189 453 197.0 422.0Q205 391 205 349V166Q205 131 213.5 107.0Q222 83 240.5 71.0Q259 59 288 59Q308 59 330.0 66.5Q352 74 371.5 93.0Q391 112 403.0 145.5Q415 179 415 230V489Q415 501 425.5 508.0Q436 515 458 515Q481 515 491.0 508.0Q501 501 501 489V211Q501 165 505.5 136.0Q510 107 520.5 90.5Q531 74 548.0 67.5Q565 61 589 61Q609 61 628.5 67.0Q648 73 665.5 86.5Q683 100 696.5 122.0Q710 144 718.0 174.5Q726 205 726 246Q726 284 720.5 321.0Q715 358 703.5 393.5Q692 429 673 461Q662 479 667.0 492.0Q672 505 686.0 512.0Q700 519 715 519Q729 519 736.0 513.0Q743 507 750 495Q765 472 779.5 435.5Q794 399 804.0 353.0Q814 307 814 255Q814 213 804.0 172.5Q794 132 775.0 97.5Q756 63 727.5 37.0Q699 11 662.0 -4.0Q625 -19 579 -19Q546 -19 517.0 -8.0Q488 3 466.5 25.5Q445 48 432 83Q415 50 390.0 28.0Q365 6 335.0 -5.5Q305 -17 273 -17Z" transform="translate(194.61599999999999, 72) scale(0.072, -0.072)" /><path d="M-55 -17Q-74 -17 -83.5 -5.5Q-93 6 -93.5 20.5Q-94 35 -85.0 46.5Q-76 58 -57 58Q-26 58 0.0 82.0Q26 106 47.0 153.5Q68 201 84.0 271.0Q100 341 110 433L170 424Q161 312 142.5 229.0Q124 146 96.0 91.5Q68 37 30.5 10.0Q-7 -17 -55 -17ZM460 -17Q434 -17 415.0 -10.0Q396 -3 384.0 10.5Q372 24 366.0 44.5Q360 65 360 91Q360 119 362.5 155.0Q365 191 367.5 229.0Q370 267 372.5 301.5Q375 336 375 361Q375 400 365.5 414.5Q356 429 330 429Q302 429 266.0 419.0Q230 409 196.0 399.5Q162 390 141 390Q123 390 106.5 409.5Q90 429 79.0 457.5Q68 486 68 513Q68 531 74.0 545.0Q80 559 91.5 567.0Q103 575 121 575Q154 575 165.0 552.0Q176 529 176 498Q176 491 176.0 484.0Q176 477 175 469Q187 469 214.0 480.0Q241 491 276.5 502.0Q312 513 348 513Q388 513 413.0 498.0Q438 483 449.5 451.5Q461 420 461 369Q461 346 458.5 310.5Q456 275 453.5 235.5Q451 196 448.5 161.0Q446 126 446 103Q446 77 453.5 67.5Q461 58 476 58Q486 58 494.0 61.0Q502 64 509.5 69.5Q517 75 524 80Q532 86 542.0 82.0Q552 78 559 70Q567 60 567.5 50.0Q568 40 563 31Q552 16 535.5 5.0Q519 -6 499.5 -11.5Q480 -17 460 -17Z" transform="translate(258.55199999999996, 72) scale(0.072, -0.072)" /><path d="M193 -17Q141 -17 117.5 10.0Q94 37 94 86V489Q94 502 104.5 508.5Q115 515 136 515Q158 515 169.0 508.5Q180 502 180 489V96Q180 76 189.0 67.0Q198 58 211 58Q222 58 229.5 61.5Q237 65 243.5 70.0Q250 75 258 81Q264 86 274.5 82.0Q285 78 291 70Q299 61 300.0 51.0Q301 41 295 33Q284 17 267.5 6.0Q251 -5 231.5 -11.0Q212 -17 193 -17ZM138 669Q110 669 95.5 684.5Q81 700 81 731Q81 763 95.5 779.0Q110 795 138 795Q165 795 179.0 779.0Q193 763 193 731Q194 700 179.5 684.5Q165 669 138 669Z" transform="translate(299.448, 72) scale(0.072, -0.072)" /><path d="M243 -17Q201 -17 173.5 -1.5Q146 14 132.5 42.5Q119 71 119 111V420H41Q26 420 20.0 429.0Q14 438 14 460Q14 483 20.0 491.5Q26 500 41 500H119V704Q119 717 129.5 723.5Q140 730 161 730Q183 730 194.0 723.5Q205 717 205 704V500H331Q346 500 352.5 491.5Q359 483 359 460Q359 438 352.5 429.0Q346 420 331 420H205V121Q205 87 214.5 72.5Q224 58 249 58Q272 58 288.5 69.0Q305 80 323 96Q335 107 345.5 103.5Q356 100 365 91Q376 81 376.5 70.5Q377 60 371 51Q354 26 333.0 11.0Q312 -4 289.0 -10.5Q266 -17 243 -17Z" transform="translate(321.048, 72) scale(0.072, -0.072)" /><path d="M300 -17Q260 -17 222.5 0.0Q185 17 153.5 48.0Q122 79 98.5 121.5Q75 164 62.0 214.5Q49 265 49 321Q49 355 57.0 385.5Q65 416 80.0 440.5Q95 465 116.0 482.5Q137 500 163.0 509.5Q189 519 219 519Q276 519 311.5 496.0Q347 473 363.0 435.5Q379 398 379 355Q379 321 366.5 285.0Q354 249 332.0 214.5Q310 180 281 148Q238 100 183.0 62.5Q128 25 66.5 4.0Q5 -17 -60 -17Q-74 -17 -81.0 -5.5Q-88 6 -86.5 20.5Q-85 35 -74.0 46.5Q-63 58 -41 58Q5 58 53.5 76.0Q102 94 146.0 124.0Q190 154 221 189Q243 214 258.5 240.5Q274 267 282.0 294.0Q290 321 290 346Q290 399 270.0 419.5Q250 440 216 440Q199 440 184.5 432.5Q170 425 159.0 409.5Q148 394 142.0 372.0Q136 350 136 321Q136 264 152.5 216.5Q169 169 196.0 135.0Q223 101 253.5 82.0Q284 63 311 63Q330 63 348.0 70.5Q366 78 385.5 93.0Q405 108 425 130Q439 146 452.0 145.5Q465 145 479 134Q493 123 495.5 111.0Q498 99 489 85Q464 47 430.5 24.5Q397 2 363.0 -7.5Q329 -17 300 -17Z" transform="translate(348.984, 72) scale(0.072, -0.072)" /><path d="M323 -19Q269 -19 222.5 -3.0Q176 13 138.0 43.0Q100 73 71 117Q61 133 63.0 147.5Q65 162 81 174Q100 188 113.5 185.5Q127 183 139 167Q179 118 226.0 92.0Q273 66 327 66Q390 66 433.0 95.0Q476 124 497.5 181.5Q519 239 519 327V1340Q500 1321 471.5 1309.0Q443 1297 411 1297Q384 1297 359.5 1303.0Q335 1309 313.0 1316.5Q291 1324 269.5 1329.5Q248 1335 228 1335Q202 1335 182.0 1321.5Q162 1308 150.0 1282.0Q138 1256 138 1220Q138 1205 128.5 1195.0Q119 1185 94 1185Q73 1185 63.5 1194.5Q54 1204 54 1220Q54 1280 75.0 1324.5Q96 1369 135.0 1394.0Q174 1419 225 1419Q257 1419 282.5 1413.0Q308 1407 331.0 1399.5Q354 1392 375.5 1386.0Q397 1380 420 1380Q451 1380 471.0 1394.5Q491 1409 509 1425Q524 1441 536.5 1447.0Q549 1453 563 1453Q585 1453 596.0 1446.5Q607 1440 607 1426V326Q607 211 574.5 134.5Q542 58 479.0 19.5Q416 -19 323 -19Z" transform="translate(402.552, 72) scale(0.072, -0.072)" /><path d="M251 0Q207 0 207 28V1399Q207 1413 218.0 1420.0Q229 1427 251 1427H524Q677 1427 796.0 1383.5Q915 1340 998.0 1256.5Q1081 1173 1124.0 1054.5Q1167 936 1167 787Q1167 639 1135.5 516.0Q1104 393 1043.5 297.0Q983 201 895.0 134.5Q807 68 692.5 34.0Q578 0 440 0ZM295 85H439Q559 85 658.5 115.5Q758 146 834.0 204.5Q910 263 962.5 348.5Q1015 434 1042.5 544.0Q1070 654 1070 787Q1070 916 1033.0 1019.0Q996 1122 926.0 1194.0Q856 1266 754.5 1304.0Q653 1342 524 1342H295Z" transform="translate(460.296, 72) scale(0.072, -0.072)" /></g></svg>
